svgs/regular/smoke.svg

<svg xmlns="http://www.w3.org/2000/svg" viewBox="0 0 640 512"><!--! Font Awesome Pro 6.0.0 by @fontawesome - https://fontawesome.com License - https://fontawesome.com/license (Commercial License) Copyright 2022 Fonticons, Inc. --><path d="M640 248C640 164.2 571.8 96 488 96c-14.38 0-28.38 2.75-42 6.75C418.2 60.25 370.5 32 316 32C296.2 32 276.8 35.88 257.9 43.75C229.6 15.75 191.9 0 152 0C68.25 0 0 68.25 0 152C0 189.8 14.25 224 37.38 250.5C14.38 278.2 0 313.2 0 352c0 88.25 71.75 160 160 160h352c70.63 0 128-57.38 128-128c0-23.75-7-45.88-18.38-65.13C633.1 297.8 640 273.8 640 248zM592 248c0 11.25-2.125 22.12-5.5 32.25C565.5 265.1 539.9 256 512 256c-21.62 0-42.38 5.375-61.13 15.88C423.8 241.5 385.2 224 344 224C319.9 224 296.8 230.1 275.6 241.8C268.8 234.4 261 228.1 252.9 222.2C268.8 194.8 297.1 176 332 176c15.62 0 30.75 4.25 45.25 12.5l17.63 10.12l12.88-15.87C427.9 158.2 457.1 144 488 144C545.3 144 592 190.8 592 248zM152 48c31.62 0 61.25 14.62 81.25 40l12.75 16.12l17.88-10C280.6 84.75 298.2 80 316 80c35.25 0 66.38 17.25 86.13 43.62c-6.375 4.5-12.88 9.125-18.5 14.62C367 131.4 349.8 128 332 128C279.2 128 233.8 157.6 209.9 200.9C193.9 195.5 177.2 192 160 192C127.8 192 97.75 201.8 72.5 218.2C57.25 200.2 48 177.2 48 152C48 94.75 94.75 48 152 48zM512 464H160c-61.75 0-112-50.25-112-112S98.25 240 160 240c36 0 70.12 17.75 91.25 47.38l14.5 20.38L285.5 292.4C302.8 279.1 323 272 344 272c33.13 0 63.38 17 81.25 45.38l14.5 23.38l21.12-17.63C471.2 314.4 488.5 304.1 512 304.1c44.13 0 80 35.88 80 80S556.1 464 512 464z"/></svg>

<svg xmlns="http://www.w3.org/2000/svg" viewBox="0 0 640 512"><!-- Font Awesome Pro 5.15.3 by @fontawesome - https://fontawesome.com License - https://fontawesome.com/license (Commercial License) --><path d="M640 248c0-83.8-68.2-152-152-152-14.4 0-28.4 2.7-42 6.7C418.2 60.3 370.5 32 316 32c-19.8 0-39.3 3.9-58.1 11.7C229.6 15.7 191.9 0 152 0 68.2 0 0 68.2 0 152c0 37.8 14.3 72 37.4 98.5C14.4 278.2 0 313.3 0 352c0 88.2 71.8 160 160 160h352c70.6 0 128-57.4 128-128 0-23.8-7-45.9-18.4-65.1 11.5-21.1 18.4-45.1 18.4-70.9zm-48 0c0 11.3-2.1 22.1-5.5 32.3-21-15.2-46.6-24.3-74.5-24.3-21.6 0-42.4 5.4-61.1 15.9C423.8 241.5 385.3 224 344 224c-24.1 0-47.3 6.1-68.4 17.7-6.9-7.3-14.6-13.6-22.7-19.4C268.7 194.8 298 176 332 176c15.6 0 30.8 4.2 45.2 12.5l17.7 10.1 12.9-15.8c20.1-24.6 49.3-38.8 80.2-38.8 57.3 0 104 46.7 104 104zM152 48c31.6 0 61.2 14.6 81.3 40l12.7 16.1 17.9-10C280.6 84.8 298.2 80 316 80c35.3 0 66.4 17.3 86.1 43.6-6.4 4.5-12.8 9.2-18.5 14.7C367 131.4 349.7 128 332 128c-52.8 0-98.3 29.6-122.1 72.9-16-5.4-32.7-8.9-49.9-8.9-32.3 0-62.3 9.8-87.5 26.3-15.2-18-24.5-41-24.5-66.3C48 94.7 94.7 48 152 48zm360 416H160c-61.8 0-112-50.2-112-112s50.2-112 112-112c36 0 70.1 17.7 91.2 47.4l14.5 20.4 19.8-15.4C302.8 279.1 323 272 344 272c33.1 0 63.4 17 81.2 45.4l14.6 23.4 21.1-17.7c10.4-8.7 27.6-19 51.1-19 44.1 0 80 35.9 80 80S556.1 464 512 464z"/></svg>
